docs/.gitbook/assets/chain-icons/pythnet.svg

<svg width="372" height="466" viewBox="0 0 372 466" fill="none" xmlns="http://www.w3.org/2000/svg">
<path d="M232.499 186.632C232.499 212.33 211.678 233.167 185.999 233.167V279.702C237.357 279.702 278.999 238.029 278.999 186.632C278.999 135.235 237.357 93.5623 185.999 93.5623C169.068 93.5623 153.169 98.0874 139.499 106.022C111.695 122.102 92.9985 152.178 92.9985 186.632V419.307L134.809 461.148L139.499 465.841V186.632C139.499 160.934 160.319 140.097 185.999 140.097C211.678 140.097 232.499 160.934 232.499 186.632Z" fill="white"/>
<path d="M186 0.5C152.119 0.5 120.362 9.57125 93 25.4196C75.481 35.5432 59.7917 48.4451 46.5 63.5357C17.5611 96.348 0 139.452 0 186.64V326.244L46.5 372.779V186.64C46.5 145.303 64.4607 108.155 93 82.5833C106.418 70.5865 122.17 61.1153 139.5 55.0117C154.033 49.8342 169.701 47.0349 186 47.0349C263.037 47.0349 325.5 109.544 325.5 186.64C325.5 263.735 263.037 326.244 186 326.244V372.779C288.737 372.779 372 289.433 372 186.64C372 83.8461 288.737 0.5 186 0.5Z" fill="white"/>
</svg>

<svg xmlns="http://www.w3.org/2000/svg" width="372" height="466" fill="none"><path fill="#fff" d="M232.499 186.632c0 25.698-20.821 46.535-46.5 46.535v46.535c51.358 0 93-41.673 93-93.07 0-51.397-41.642-93.07-93-93.07-16.931 0-32.83 4.525-46.5 12.46-27.804 16.08-46.5 46.156-46.5 80.61v232.675l41.81 41.841 4.69 4.693V186.632c0-25.698 20.82-46.535 46.5-46.535 25.679 0 46.5 20.837 46.5 46.535Z"/><path fill="#fff" d="M186 .5c-33.881 0-65.638 9.071-93 24.92a186.007 186.007 0 0 0-46.5 38.116C17.561 96.348 0 139.452 0 186.64v139.604l46.5 46.535V186.64c0-41.337 17.96-78.485 46.5-104.057 13.418-11.996 29.17-21.468 46.5-27.571 14.533-5.178 30.201-7.977 46.5-7.977 77.037 0 139.5 62.509 139.5 139.605 0 77.095-62.463 139.604-139.5 139.604v46.535c102.737 0 186-83.346 186-186.139C372 83.846 288.737.5 186 .5Z"/></svg>
